symbols/web/no_sim/materialsymbolsrounded/no_sim_wght500fill1_20px.svg

<svg xmlns="http://www.w3.org/2000/svg" height="20" width="20"><path d="M16.833 14.104 6.229 3.479l1.542-1.541q.229-.209.51-.323.281-.115.573-.115h6q.834 0 1.406.573.573.573.573 1.406Zm-.229 4.771-4.229-4.208 1.292-1.271 3.166 3.166q0 .792-.583 1.365t-1.396.573H5.146q-.834 0-1.406-.573-.573-.573-.573-1.406V7.229q0-.291.114-.583.115-.292.323-.5l.125-.125-2.604-2.604q-.25-.25-.25-.636 0-.385.271-.635.25-.271.635-.271.386 0 .657.25l15.437 15.458q.25.271.24.657-.011.385-.261.635-.271.271-.635.271-.365 0-.615-.271Z"/></svg>

<svg xmlns="http://www.w3.org/2000/svg" height="20" width="20"><path d="M16.833 14.104 6.229 3.479 7.771 1.938Q8 1.729 8.281 1.615Q8.562 1.5 8.854 1.5H14.854Q15.688 1.5 16.26 2.073Q16.833 2.646 16.833 3.479ZM5.146 18.5Q4.312 18.5 3.74 17.927Q3.167 17.354 3.167 16.521V7.229Q3.167 6.938 3.281 6.646Q3.396 6.354 3.604 6.146L3.729 6.021L1.125 3.417Q0.854 3.146 0.865 2.781Q0.875 2.417 1.146 2.125Q1.417 1.875 1.781 1.875Q2.146 1.875 2.438 2.125L17.875 17.604Q18.146 17.854 18.146 18.219Q18.146 18.583 17.875 18.854Q17.604 19.146 17.229 19.146Q16.854 19.146 16.583 18.854L15.938 18.208Q15.708 18.375 15.469 18.438Q15.229 18.5 14.938 18.5Z"/></svg>
